X: 4
M: 3/2
L: 1/8
P: AA BB ad lib.
Q: 1/2=80 "sweeping"
K: Bb
V: 1
"A"|:\
f4 d4 (ga) (gf) | g2 b4 d2 c2B2 |\
f2d2 B3A GAB2 | ABc2 f2A2 G2F2 :|\
"B"|:\
b2a2 g2f2 b2d2 | gfed c2B2 c2F2 |\
V: 2
|:\
|:\
V: 3 clef=bass middle=d
|:\
"Bb"B8 "Eb"B2-"Bb"B2 | "Eb"e4 "Bb"B4 "F"f2"Bb"B2 | "F"A2"Bb"B2 "Eb"e4 "C"=e4 | "F"f4 A2F2 "C"c2"F"F2 :|
|:\
"Bb"B8 "Eb"e4 | "Cm"e4 "G"d2"Cm"c2 "G"g2"Cm"c2 | "F"f8 "Dm"f4 | "Gm"g3f "C"=e2"F"f2 "C"c2"F"f2 |
"Bb"d4 "Eb"_e2"Dm"d2 "Gm"g2g2 | "Eb"e4 "F"f2"Bb"B2 "F"f2"Bb"d2 | "Eb"e4 "F"f4 "Bb"B4 | "Eb"e3d "F"c2"Bb"B2 "F"f2"Bb"B2 :|


